X: 1
T:Geld him lassies, geld him
M:3/2
L:1/8
C:Trad arr. Martin Dunne
R:Hornpipe
Z:Richard Moon
K:D
d4A2 Bc d2 D2|F2 A4 d2 c2 BA|e4 B2 cd e2 E2|G2 B4 d2 c2 BA:||!
d3 e defg agfe|d2 f4 a2 g2 f2|ef g2 fg a2 ga b2|g2 e4 B2 c2 BA:||!
